static/images/mobile/copyright/wikipedia-wordmark-tet.svg

<?xml version="1.0" encoding="UTF-8"?>
<svg width="120px" height="18px" viewBox="0 0 120 18" version="1.1" xmlns="http://www.w3.org/2000/svg" xmlns:xlink="http://www.w3.org/1999/xlink">
    <title>tet-wordmark</title>
    <g id="Page-1" stroke="none" stroke-width="1" fill="none" fill-rule="evenodd">
        <path d="M18.3390858,0.000836002028 C18.4063431,0.000928727605 18.4726415,0.00102683458 18.5377747,0.00112908108 L18.9129427,0.00178229966 C18.9725906,0.00189613686 19.0306611,0.00201162988 19.086948,0.00212753685 L19.4016171,0.00281801124 C19.449945,0.00293060658 19.496077,0.00304113216 19.539807,0.00314834611 L19.8629553,0.00399032746 C19.8904177,0.0040664949 19.9148595,0.00413562513 19.9360747,0.00419647629 L20.0343261,0.00448707162 L20.0918728,0.0569858096 L20.0918728,0.557743003 C20.0918728,0.696056986 20.0141343,0.764709182 19.8606764,0.764709182 C19.1075215,0.800044871 18.953054,0.874754613 18.6774356,1.27152392 C18.5270066,1.48757642 18.2301868,1.95299792 17.9222615,2.47596612 L15.2791519,7.41892422 C15.2791519,7.41892422 15.2533325,7.47287012 15.2053877,7.57284693 L18.4351338,14.1841943 L18.6309944,14.2377026 L23.7193337,2.16198329 C23.8960121,1.67536037 23.8687532,1.33008021 23.6415952,1.12715239 C23.4134276,0.930282125 23.2529026,0.812159964 22.6633014,0.787929777 L22.1857648,0.764709182 C22.1272085,0.764709182 22.071681,0.743507768 22.0181726,0.703124124 C21.9656739,0.665769252 21.9384149,0.616299288 21.9384149,0.556733412 L21.9384149,0.0539570363 L22.0111055,0.00246788939 L27.7597173,0.00246788939 L27.8182736,0.0539570363 L27.8182736,0.556733412 C27.8182736,0.693028212 27.7405351,0.761680408 27.5870772,0.761680408 C26.8339223,0.794996915 26.2756184,0.958550676 25.9141848,1.25032251 C25.5517415,1.54411352 25.269056,1.94794997 25.0661282,2.47495653 C25.0661282,2.47495653 23.538143,5.97201532 21.929673,9.63390532 L21.6610976,10.2451752 C20.5409969,12.7937307 19.4208633,15.3325 18.7854619,16.745527 C18.1726401,17.9126143 17.5699142,17.8055976 17.0398788,16.7122104 C16.6285838,15.8651429 15.9429053,14.3852497 15.239933,12.8517704 L14.771544,11.8278688 C14.4982433,11.2292805 14.2310506,10.6422123 13.9854012,10.1014404 C12.9033634,12.3347619 11.4207519,15.3622033 10.6855124,16.7253351 C9.97072186,17.9681418 9.38213024,17.8055976 8.91367996,16.757642 C7.28722867,12.9201862 3.94750126,6.18217511 2.3755679,2.40630434 C2.08480565,1.71069606 1.86572438,1.26445678 1.6587582,1.08777834 C1.45078243,0.913119076 1.01867744,0.8081216 0.361433619,0.772785911 C0.120141343,0.746536542 0,0.687980257 0,0.593078692 L0,0.0670817208 L0.0585562847,0.0155925739 C0.184458236,0.0148799213 0.367232655,0.0143349517 0.591755198,0.013928074 L1.37544285,0.0130921251 C1.44866646,0.0130520539 1.52355406,0.0130187639 1.59986933,0.0129917928 L2.56905625,0.0129418578 C2.65301177,0.0129580404 2.7374497,0.0129786926 2.8221337,0.0130033518 L4.55561428,0.0139516544 C4.63216381,0.0140097578 4.70730519,0.0140686318 4.78080211,0.014127814 L5.73038133,0.0149808702 C5.78152565,0.0150315758 5.82984393,0.0150802778 5.87509983,0.0151265139 L6.30792529,0.0155925739 L6.36648157,0.0670817208 L6.36648157,0.567838914 C6.36648157,0.706152897 6.27864715,0.772785911 6.10600707,0.772785911 L5.45381121,0.800044871 C4.89449773,0.823265466 4.61484099,0.990857592 4.61484099,1.30080206 C4.61484099,1.44517359 4.67339727,1.68040832 4.80363453,1.99540075 C6.05552751,5.0463851 10.3796063,14.1640025 10.3796063,14.1640025 L10.5381121,14.2053957 L13.3250934,8.64522523 C12.9844787,7.89272569 12.7672892,7.4108475 12.7672892,7.4108475 L10.8510853,3.64507263 C10.8510853,3.64507263 10.4805654,2.89191766 10.3543665,2.64153907 C9.51236749,0.973694543 9.53054013,0.884850524 8.67945482,0.771776319 C8.44119132,0.740478995 8.3180212,0.710191261 8.3180212,0.592069101 L8.3180212,0.0640529474 L8.38970217,0.0125638005 L8.90219586,0.0120166022 C8.96424028,0.0119620842 9.02778843,0.0119095855 9.09264382,0.0118590312 L10.579372,0.0110575654 C10.6529003,0.0110305682 10.7263604,0.0110049919 10.7995558,0.0109807617 L13.3488137,0.0105446183 L13.4800606,0.0539570363 L13.4800606,0.579954008 C13.4800606,0.70009535 13.3942453,0.761680408 13.2195861,0.761680408 L12.8601716,0.813169555 C11.9515396,0.883840933 12.0999495,1.25537046 12.703685,2.45779348 L14.542,6.218 L16.5754669,2.16299288 C16.893017,1.47041337 16.8535038,1.26241965 16.732728,1.09822334 L16.7057042,1.06354815 C16.6249369,0.967636996 16.3543665,0.812159964 15.7657749,0.788939368 L15.5345785,0.763699591 C15.4760222,0.763699591 15.4215043,0.743507768 15.367996,0.704133715 C15.3154972,0.666778843 15.2892479,0.61831847 15.2892479,0.556733412 L15.2892479,0.0559762185 L15.3609288,0.00448707162 C15.609149,0.00274639729 15.9106998,0.00160595548 16.2398127,0.000910513653 Z M28.8032968,5.31764957 L28.9217567,5.31796511 C29.6304897,5.31796511 31.6516911,5.26546638 31.6516911,5.26546638 L31.6779404,5.31796511 L31.6779404,5.89545123 C31.6779404,5.97419934 31.6254417,6.02669808 31.5204442,6.02669808 L30.9692075,6.08020641 C30.155477,6.15794492 29.866734,6.36894946 29.866734,6.89494644 L29.866734,15.6359863 C29.866734,16.2134724 30.1292277,16.5547142 30.9692075,16.6334623 L31.5204442,16.6869707 C31.5991923,16.6869707 31.6779404,16.7384598 31.6779404,16.8434573 L31.6779404,17.394694 L31.6516911,17.4482024 C31.6516911,17.4482024 29.656739,17.394694 28.8430086,17.394694 C28.1080262,17.394694 26.0605755,17.4482024 26.0605755,17.4482024 L26.0080767,17.394694 L26.0080767,16.8434573 C26.0080767,16.7384598 26.0868248,16.6869707 26.1918223,16.6869707 L26.7168097,16.6334623 C27.5830389,16.5547142 27.8455326,16.1347243 27.8455326,15.6359863 L27.8455326,6.89494644 C27.8455326,6.3194795 27.5295305,6.15895451 26.7168097,6.08222559 L26.1918223,6.02770767 C26.0868248,6.02770767 26.0080767,6.00347748 26.0080767,5.92271019 L26.0080767,5.31796511 L26.0343261,5.26546638 C26.0343261,5.26546638 27.9237926,5.31330097 28.8032968,5.31764957 Z M37.6133266,15.6359863 C37.6133266,16.2134724 37.9545684,16.5022155 38.7158001,16.6334623 L39.0045432,16.6869707 C39.0832913,16.7122104 39.1620394,16.7384598 39.1620394,16.8434573 L39.1620394,17.394694 L39.13579,17.4482024 C39.13579,17.4482024 37.4820798,17.394694 36.6945987,17.394694 C35.9596164,17.394694 33.8071681,17.4482024 33.8071681,17.4482024 L33.7546694,17.394694 L33.7546694,16.8434573 C33.7546694,16.7384598 33.8334175,16.6869707 33.9384149,16.6869707 L34.4634023,16.6334623 C35.2508834,16.5547142 35.5921252,16.1347243 35.5921252,15.6359863 L35.5921252,6.89494644 C35.5921252,6.3194795 35.3033821,6.15895451 34.4634023,6.08222559 L33.9384149,6.02770767 C33.8334175,6.02770767 33.7546694,6.00347748 33.7546694,5.92271019 L33.7546694,5.31796511 L33.7809187,5.26546638 C33.7809187,5.26546638 35.933367,5.31796511 36.7470974,5.31796511 C37.4830893,5.31796511 39.13579,5.26546638 39.13579,5.26546638 L39.1620394,5.31796511 L39.1620394,5.89545123 C39.1620394,5.97419934 39.1095406,6.00044871 39.0045432,6.02669808 L38.7158001,6.08020641 C37.9020697,6.23669303 37.6133266,6.36894946 37.6133266,6.89494644 L37.6133266,10.8596107 C38.4795558,10.8596107 38.9782938,10.4153907 40.133266,9.17965113 C41.1832408,8.02265971 41.9969712,7.05547142 41.9969712,6.55370464 C41.9969712,6.3427001 41.7607269,6.10847496 41.2357395,6.02770767 C41.130742,6.00347748 41.0782433,5.97520893 41.0782433,5.89646082 L41.0782433,5.29070615 L41.1044927,5.26647597 C41.1044927,5.26647597 43.2306916,5.3189747 43.9919233,5.3189747 C44.6744069,5.3189747 45.8293791,5.26647597 45.8293791,5.26647597 L45.9081272,5.29070615 L45.9081272,5.89646082 C45.9081272,5.97520893 45.8293791,6.02770767 45.6981323,6.02770767 C44.6744069,6.10645577 43.9656739,6.15895451 43.0206966,7.23517864 L40.7632509,9.83184699 C40.3170116,10.3063548 40.1595154,10.5930787 40.1595154,10.8040832 C40.1595154,10.9615794 40.2645129,11.0918167 40.3957597,11.2493129 L44.3594144,16.0266981 C44.6744069,16.3931797 45.3043917,16.5516855 45.8293791,16.6556733 L45.9606259,16.6809131 C46.0393741,16.7061529 46.1443715,16.7586516 46.1443715,16.8373997 L46.1443715,17.3886365 L46.0656234,17.4148859 C46.0656234,17.4148859 44.6744069,17.3886365 43.9394245,17.3886365 C43.2831903,17.3886365 42.338213,17.4148859 42.338213,17.4148859 L42.3119637,17.3886365 L42.3119637,17.0736441 C42.3119637,16.7313927 42.2857143,16.4446688 41.9182231,16.0246789 L39.0045432,12.4012564 C38.6108026,11.8752594 38.1908127,11.7460317 37.6133266,11.7460317 L37.6133266,15.6359863 L37.6133266,15.6359863 Z M51.7647653,15.6359863 C51.7647653,16.2134724 52.027259,16.5547142 52.8672388,16.6334623 L53.4184755,16.6869707 C53.4972236,16.6869707 53.5759717,16.7384598 53.5759717,16.8434573 L53.5759717,17.394694 L53.5497224,17.4482024 C53.5497224,17.4482024 51.5547703,17.394694 50.7410399,17.394694 C50.0060575,17.394694 47.9586068,17.4482024 47.9586068,17.4482024 L47.906108,17.394694 L47.906108,16.8434573 C47.906108,16.7384598 47.9848561,16.6869707 48.0898536,16.6869707 L48.614841,16.6334623 C49.4810702,16.5547142 49.7435639,16.1347243 49.7435639,15.6359863 L49.7435639,6.89494644 C49.7435639,6.3194795 49.4285714,6.15895451 48.614841,6.08222559 L48.0898536,6.02770767 C47.9848561,6.02770767 47.906108,6.00347748 47.906108,5.92271019 L47.906108,5.31796511 L47.9323574,5.26546638 C47.9323574,5.26546638 50.0060575,5.31796511 50.819788,5.31796511 C51.5285209,5.31796511 53.5497224,5.26546638 53.5497224,5.26546638 L53.5759717,5.31796511 L53.5759717,5.89545123 C53.5759717,5.97419934 53.523473,6.02669808 53.4184755,6.02669808 L52.8672388,6.08020641 C52.0535083,6.15794492 51.7647653,6.36894946 51.7647653,6.89494644 L51.7647653,15.6359863 Z M57.4366482,6.94643558 C57.4366482,6.13270514 57.0954064,6.10645577 55.861686,6.02770767 C55.7041898,6.02770767 55.6779404,5.94996915 55.6779404,5.89646082 L55.6779404,5.29272534 L55.7304392,5.26647597 C56.1241797,5.26647597 57.6728925,5.3189747 58.4341242,5.3189747 C59.1691065,5.3189747 60.2190813,5.26647597 61.1903079,5.26647597 C64.9156991,5.26647597 65.5981827,7.10292221 65.5981827,8.46990858 C65.5981827,10.0458803 64.836951,12.5123114 61.1115598,12.5123114 C60.4553256,12.5123114 59.9303382,12.4588031 59.45684,12.2498177 L59.45684,15.765214 C59.45684,16.3416905 59.7718324,16.4749565 60.6128218,16.6051938 L61.1388188,16.6839419 C61.2438163,16.7091817 61.323574,16.7374502 61.323574,16.8404285 L61.323574,17.3916653 L61.2993438,17.4451736 C61.2993438,17.4451736 59.1983847,17.3916653 58.3846542,17.3916653 C57.6496719,17.3916653 55.6809692,17.4451736 55.6809692,17.4451736 L55.6547198,17.3916653 L55.6547198,16.8404285 C55.6547198,16.735431 55.7072186,16.7091817 55.8122161,16.6839419 L56.3634528,16.6051938 C57.1771832,16.5001963 57.4396769,16.263952 57.4396769,15.765214 L57.4366482,6.94643558 L57.4366482,6.94643558 L57.4366482,6.94643558 Z M59.4578496,11.5148354 C59.982837,11.7258399 60.6390712,11.7510797 61.1640586,11.7510797 C62.7400303,11.7510797 63.4982332,10.8040832 63.4982332,8.784901 C63.4982332,6.52745527 62.4745078,6.02871726 61.0328117,6.02871726 C59.7718324,6.02871726 59.45684,6.26496158 59.45684,6.94744517 L59.4578496,11.5148354 L59.4578496,11.5148354 Z M79.9909137,16.6869707 L80.5946492,16.6334623 C81.3831398,16.5547142 81.6456335,16.3184699 81.6456335,15.5057491 L81.6456335,6.84345729 C81.6456335,6.15895451 81.4598688,6.15895451 80.5946492,6.08222559 L80.0191822,6.02770767 C79.9141848,6.02770767 79.8334175,5.97520893 79.8334175,5.89646082 L79.8334175,5.3189747 L79.8586572,5.26647597 C79.8586572,5.26647597 82.1696113,5.3189747 82.6431095,5.3189747 C83.1398284,5.3189747 85.4255427,5.26647597 86.1080262,5.26647597 C90.4916709,5.26647597 92.6451287,7.99641034 92.6451287,11.4875764 C92.6451287,16.0822256 89.3891974,17.4451736 86.4775366,17.4451736 C84.3775871,17.4451736 83.4598688,17.3916653 82.6461383,17.3916653 C81.8576477,17.3916653 79.861686,17.4451736 79.861686,17.4451736 L79.8364462,17.3916653 L79.8364462,16.8404285 C79.8334175,16.7657188 79.8869258,16.6869707 79.9909137,16.6869707 Z M85.8455326,16.6869707 C88.7319536,16.6869707 90.3614336,15.6127657 90.3614336,11.9348253 C90.3614336,9.2059005 89.7566885,6.02770767 85.3467945,6.02770767 C84.3230692,6.02770767 83.6668349,6.18520388 83.6668349,6.84345729 L83.6668349,15.5057491 C83.6668349,16.2387122 83.8495709,16.6869707 85.8455326,16.6869707 Z M98.841999,15.6359863 C98.841999,16.2134724 99.1044927,16.5547142 99.9444725,16.6334623 L100.495709,16.6869707 C100.574457,16.6869707 100.653205,16.7384598 100.653205,16.8434573 L100.653205,17.394694 L100.626956,17.4482024 C100.626956,17.4482024 98.632004,17.394694 97.8192832,17.394694 C97.0832913,17.394694 95.0368501,17.4482024 95.0368501,17.4482024 L94.9833417,17.394694 L94.9833417,16.8434573 C94.9833417,16.7384598 95.0620899,16.6869707 95.1670873,16.6869707 L95.6930843,16.6334623 C96.5583039,16.5547142 96.8218072,16.1347243 96.8218072,15.6359863 L96.8218072,6.89494644 C96.8218072,6.3194795 96.5058051,6.15895451 95.6930843,6.08222559 L95.1670873,6.02770767 C95.0620899,6.02770767 94.9833417,6.00347748 94.9833417,5.92271019 L94.9833417,5.31796511 L95.0095911,5.26546638 C95.0095911,5.26546638 97.0832913,5.31796511 97.8950025,5.31796511 C98.6027259,5.31796511 100.625946,5.26546638 100.625946,5.26546638 L100.650177,5.31796511 L100.650177,5.89545123 C100.650177,5.97419934 100.595659,6.02669808 100.49268,6.02669808 L99.9414437,6.08020641 C99.1267037,6.15794492 98.8389702,6.36894946 98.8389702,6.89494644 L98.841999,15.6359863 L98.841999,15.6359863 L98.841999,15.6359863 Z M106.928824,16.6334623 L107.690056,16.6869707 C107.795053,16.6869707 107.90005,16.7657188 107.90005,16.895956 L107.90005,17.394694 L107.847552,17.4482024 C107.847552,17.4482024 104.986371,17.394694 104.356386,17.394694 C103.672892,17.394694 101.992933,17.4482024 101.992933,17.4482024 L101.939425,17.394694 L101.939425,16.895956 C101.939425,16.7657188 102.018173,16.6869707 102.150429,16.6869707 C103.306411,16.6082226 103.960626,16.397218 104.695608,14.7172584 L110.521959,1.06657693 C110.809692,0.384093331 111.020697,0.12059005 111.416456,0.12059005 C111.781928,0.12059005 111.914185,0.384093331 112.12317,0.909080711 L117.504291,15.1362387 C117.872792,16.1609737 118.398788,16.5537046 119.448763,16.6587021 L119.736497,16.6839419 C119.868753,16.6839419 120,16.7616804 120,16.8949464 L120,17.3916653 L119.921252,17.4451736 C119.921252,17.4451736 117.90005,17.3916653 116.875315,17.3916653 C115.956588,17.3916653 113.38314,17.4451736 113.38314,17.4451736 L113.35891,17.3916653 L113.35891,16.8949464 C113.35891,16.7616804 113.411408,16.6839419 113.545684,16.6839419 L114.280666,16.6304336 C115.277133,16.552695 115.646643,16.2356834 115.38314,15.5027203 L113.781928,11.0645577 L108.32004,11.0645577 C107.690056,11.0645577 107.532559,11.1695552 107.402322,11.5087778 L105.878849,15.3159459 C105.616355,15.9762185 105.957597,16.5547142 106.928824,16.6334623 Z M113.359919,9.96410343 L110.81373,2.95653149 L110.761232,2.95653149 L108.136295,9.62387122 C108.031297,9.88838409 108.214033,9.96511302 108.791519,9.96511302 L113.359919,9.96511302 L113.359919,9.96410343 Z M70.1191318,17.394694 C69.3316507,17.394694 67.5214538,17.4482024 67.5214538,17.4482024 L67.4941949,17.394694 L67.4941949,16.8172079 C67.4941949,16.7657188 67.5214538,16.6869707 67.6516911,16.6869707 L68.2574457,16.6334623 C69.0721858,16.5547142 69.3084301,16.0297268 69.3084301,15.5057491 L69.3084301,6.84345729 C69.3084301,6.23770262 68.9934377,6.13371473 68.2574457,6.08222559 L67.6516911,6.02770767 C67.4941949,6.00347748 67.4941949,5.94996915 67.4941949,5.92271019 L67.4941949,5.31796511 L67.5214538,5.26546638 C67.5214538,5.26546638 69.567895,5.31796511 70.3553761,5.31796511 L74.2140333,5.31796511 C75.0015144,5.31796511 76.8662292,5.26546638 76.8662292,5.26546638 L76.9207471,5.31796511 C76.9449773,6.44668798 77.1287229,7.47243255 77.3144876,8.46889898 L76.6602726,8.57389646 C76.3725391,7.60166022 75.8738011,6.21145325 74.1938415,6.21145325 L72.093892,6.21145325 C71.595154,6.21145325 71.3326603,6.39519883 71.3326603,6.84042852 L71.3326603,10.6475966 L73.3003534,10.6475966 C74.0363453,10.6475966 74.2190813,10.3326042 74.3250883,9.8076168 L74.481575,9.25638005 C74.481575,9.17763195 74.5350833,9.12412362 74.6390712,9.12412362 L75.0832913,9.12412362 C75.1378092,9.12412362 75.1378092,9.15138258 75.1378092,9.20287173 C75.0832913,9.77934825 74.980313,10.5163498 74.980313,11.1463346 C74.980313,11.8015593 75.0853104,12.3538056 75.1378092,12.9575411 L75.0832913,13.0110494 L74.6390712,13.0110494 C74.5088339,13.0110494 74.4533064,12.9575411 74.4533064,12.878793 L74.3220596,12.3023165 C74.2170621,11.7763195 73.9808178,11.4875764 73.2953054,11.4875764 L71.3286219,11.4875764 L71.3286219,15.5047395 C71.3286219,16.0014583 71.6143362,16.5001963 72.0898536,16.5001963 L74.5835437,16.5001963 C75.9222615,16.5001963 76.659263,15.6602165 76.9722362,14.2932301 L77.6264513,14.3719782 L77.1004543,17.3896461 L77.0479556,17.4421448 C77.0479556,17.4421448 75.4992428,17.3896461 74.7117617,17.3896461 L70.1191318,17.394694 L70.1191318,17.394694 L70.1191318,17.394694 Z M74.4570379,1.90963599 L71.8717365,3.52165012 C71.7401201,3.6036794 71.6541181,3.67396713 71.6137264,3.73252342 C71.5733266,3.79112009 71.5550853,3.85203881 71.5589985,3.9152897 C71.5602978,3.99260418 71.5889662,4.05821751 71.6450005,4.11210948 C71.7010298,4.16599136 71.7766068,4.19410847 71.8717365,4.19645073 C71.962947,4.19763195 72.0776174,4.18123619 72.2157486,4.14725335 C72.3538688,4.11329071 72.5310873,4.05471423 72.7474023,3.97152392 L75.749689,2.88433563 C75.4845482,2.48447698 75.0536648,2.15958046 74.4570379,1.90963599 L74.4570379,1.90963599 Z" id="tet-wordmark" fill="#000000" fill-rule="nonzero"></path>
    </g>
</svg>

<svg xmlns="http://www.w3.org/2000/svg" width="120" height="18"><path fill="#000" fill-rule="nonzero" d="m18.34 0 .198.001h.375l.174.001h.315l.138.001.323.001H20.034l.058.053v.5c0 .14-.078.208-.231.208-.753.035-.908.11-1.184.507-.15.216-.447.681-.755 1.204L15.28 7.419l-.074.154 3.23 6.611.196.054 5.088-12.076c.177-.487.15-.832-.077-1.035-.229-.197-.39-.315-.979-.34l-.477-.022a.275.275 0 0 1-.168-.062.174.174 0 0 1-.08-.146V.054l.073-.052h5.749l.058.052v.503c0 .136-.077.205-.23.205-.754.033-1.312.197-1.674.488-.362.294-.645.698-.848 1.225 0 0-1.528 3.497-3.136 7.159l-.269.611a1026.4 1026.4 0 0 1-2.876 6.5c-.612 1.168-1.215 1.06-1.745-.033a231.195 231.195 0 0 1-1.8-3.86l-.468-1.024-.787-1.727c-1.082 2.234-2.564 5.261-3.3 6.624-.714 1.243-1.303 1.08-1.771.033C7.287 12.92 3.948 6.182 2.376 2.406c-.291-.695-.51-1.142-.717-1.318C1.45.913 1.019.808.36.773.121.747 0 .688 0 .593V.067L.059.016.592.014h.783L1.6.012h1.222l1.734.001h.225l.95.001h.577l.058.052v.5c0 .14-.087.206-.26.206L5.454.8c-.56.023-.84.19-.84.5 0 .145.06.38.19.695 1.252 3.051 5.576 12.169 5.576 12.169l.158.041 2.787-5.56-.558-1.234-1.916-3.766s-.37-.753-.497-1.003C9.512.974 9.531.885 8.68.772 8.441.74 8.318.71 8.318.592V.064L8.39.013l.512-.001h1.677L10.8.01h2.55l.131.043V.58c0 .12-.086.182-.26.182l-.36.051c-.908.07-.76.442-.156 1.645l1.838 3.76 2.033-4.055c.318-.693.279-.9.158-1.065l-.027-.034c-.081-.096-.352-.252-.94-.275l-.231-.025a.276.276 0 0 1-.167-.06.172.172 0 0 1-.079-.147V.056l.072-.052.879-.003Zm10.463 5.318h.119c.708 0 2.73-.053 2.73-.053l.026.053v.577c0 .08-.053.132-.158.132l-.55.053c-.815.078-1.103.289-1.103.815v8.741c0 .577.262.919 1.102.997l.551.054c.08 0 .158.051.158.156v.552l-.026.053s-1.995-.053-2.809-.053c-.735 0-2.782.053-2.782.053l-.053-.053v-.552c0-.105.079-.156.184-.156l.525-.054c.866-.078 1.129-.498 1.129-.997V6.895c0-.576-.316-.736-1.13-.813l-.524-.054c-.105 0-.184-.025-.184-.105v-.605l.026-.053s1.89.048 2.77.053Zm8.81 10.318c0 .577.342.866 1.103.997l.289.054c.078.025.157.051.157.156v.552l-.026.053s-1.654-.053-2.441-.053c-.735 0-2.888.053-2.888.053l-.052-.053v-.552c0-.105.078-.156.183-.156l.525-.054c.788-.078 1.13-.498 1.13-.997V6.895c0-.576-.29-.736-1.13-.813l-.525-.054c-.105 0-.183-.025-.183-.105v-.605l.026-.053s2.152.053 2.966.053c.736 0 2.389-.053 2.389-.053l.026.053v.577c0 .08-.052.105-.157.132l-.29.053c-.813.157-1.102.289-1.102.815v3.965c.867 0 1.365-.445 2.52-1.68 1.05-1.157 1.864-2.125 1.864-2.626 0-.211-.236-.446-.761-.526-.105-.025-.158-.053-.158-.132v-.605l.026-.025s2.127.053 2.888.053c.682 0 1.837-.053 1.837-.053l.08.025v.605c0 .08-.08.132-.21.132-1.025.078-1.733.131-2.678 1.207l-2.258 2.597c-.446.474-.603.761-.603.972 0 .158.105.288.236.445l3.963 4.778c.315.366.945.525 1.47.629l.132.025c.078.025.183.078.183.156v.552l-.078.026s-1.392-.026-2.127-.026c-.656 0-1.6.026-1.6.026l-.027-.026v-.315c0-.343-.026-.63-.394-1.05l-2.913-3.623c-.394-.526-.814-.655-1.392-.655v3.89Zm14.152 0c0 .577.262.919 1.102.997l.551.054c.08 0 .158.051.158.156v.552l-.026.053s-1.995-.053-2.809-.053c-.735 0-2.782.053-2.782.053l-.053-.053v-.552c0-.105.079-.156.184-.156l.525-.054c.866-.078 1.129-.498 1.129-.997V6.895c0-.576-.315-.736-1.13-.813l-.524-.054c-.105 0-.184-.025-.184-.105v-.605l.026-.053s2.074.053 2.888.053c.709 0 2.73-.053 2.73-.053l.026.053v.577c0 .08-.053.132-.158.132l-.55.053c-.814.078-1.103.289-1.103.815v8.741Zm5.672-8.69c0-.813-.342-.84-1.575-.918-.158 0-.184-.078-.184-.132v-.603l.052-.027c.394 0 1.943.053 2.704.053.735 0 1.785-.053 2.756-.053 3.726 0 4.408 1.837 4.408 3.204 0 1.576-.761 4.042-4.486 4.042-.657 0-1.182-.053-1.655-.262v3.515c0 .577.315.71 1.156.84l.526.079c.105.025.185.053.185.156v.552l-.025.053s-2.1-.053-2.914-.053c-.735 0-2.704.053-2.704.053l-.026-.053v-.552c0-.105.052-.13.157-.156l.551-.079c.814-.105 1.077-.341 1.077-.84l-.003-8.819Zm2.02 4.569c.526.21 1.182.236 1.707.236 1.576 0 2.334-.947 2.334-2.966 0-2.258-1.023-2.756-2.465-2.756-1.261 0-1.576.236-1.576.918v4.568Zm20.534 5.172.604-.054c.788-.078 1.05-.315 1.05-1.127V6.843c0-.684-.185-.684-1.05-.76l-.576-.055c-.105 0-.186-.053-.186-.132V5.32l.026-.053s2.31.053 2.784.053c.497 0 2.783-.053 3.465-.053 4.384 0 6.537 2.73 6.537 6.222 0 4.594-3.256 5.957-6.167 5.957-2.1 0-3.018-.053-3.832-.053-.788 0-2.784.053-2.784.053l-.026-.053v-.552a.147.147 0 0 1 .155-.153Zm5.855 0c2.886 0 4.515-1.074 4.515-4.752 0-2.73-.604-5.907-5.014-5.907-1.024 0-1.68.157-1.68.815v8.663c0 .733.183 1.181 2.179 1.181Zm12.996-1.051c0 .577.262.919 1.102.997l.552.054c.078 0 .157.051.157.156v.552l-.026.053s-1.995-.053-2.808-.053c-.736 0-2.782.053-2.782.053l-.054-.053v-.552c0-.105.08-.156.184-.156l.526-.054c.865-.078 1.129-.498 1.129-.997V6.895c0-.576-.316-.736-1.129-.813l-.526-.054c-.105 0-.184-.025-.184-.105v-.605l.027-.053s2.073.053 2.885.053c.708 0 2.73-.053 2.73-.053l.025.053v.577c0 .08-.054.132-.157.132l-.552.053c-.814.078-1.102.289-1.102.815l.003 8.741Zm8.087.997.761.054c.105 0 .21.079.21.209v.499l-.052.053s-2.862-.053-3.492-.053c-.683 0-2.363.053-2.363.053l-.054-.053v-.499c0-.13.08-.209.211-.209 1.156-.079 1.81-.29 2.546-1.97l5.826-13.65c.288-.683.499-.946.894-.946.366 0 .498.263.707.788l5.381 14.227c.369 1.025.895 1.418 1.945 1.523l.287.025c.133 0 .264.078.264.21v.498l-.079.053s-2.021-.053-3.046-.053c-.918 0-3.492.053-3.492.053l-.024-.053v-.497c0-.133.052-.211.187-.211l.735-.054c.996-.077 1.366-.394 1.102-1.127l-1.601-4.438h-5.462c-.63 0-.787.105-.918.444l-1.523 3.807c-.263.66.079 1.239 1.05 1.317Zm6.43-6.669-2.545-7.007h-.053l-2.625 6.667c-.105.264.078.341.656.341h4.568Zm-43.24 7.43c-.787 0-2.598.054-2.598.054l-.027-.053v-.578c0-.051.027-.13.158-.13l.605-.054c.815-.078 1.051-.603 1.051-1.127V6.843c0-.605-.315-.71-1.05-.76l-.606-.055c-.158-.025-.158-.078-.158-.105v-.605l.027-.053s2.047.053 2.834.053h3.859c.788 0 2.652-.053 2.652-.053l.055.053c.024 1.129.208 2.154.393 3.15l-.654.106c-.287-.972-.786-2.363-2.466-2.363h-2.1c-.499 0-.761.184-.761.63v3.807H73.3c.736 0 .92-.315 1.025-.84l.157-.552c0-.078.053-.132.157-.132h.444c.055 0 .055.027.055.079-.055.576-.158 1.313-.158 1.943 0 .656.105 1.208.158 1.812l-.055.053h-.444c-.13 0-.186-.053-.186-.132l-.13-.577c-.106-.526-.342-.814-1.028-.814H71.33v4.017c0 .496.285.995.76.995h2.495c1.338 0 2.075-.84 2.388-2.207l.654.079-.526 3.018-.052.052s-1.549-.052-2.336-.052l-4.593.005ZM74.457 1.91l-2.585 1.612a.91.91 0 0 0-.258.21.285.285 0 0 0-.055.183.27.27 0 0 0 .086.197.326.326 0 0 0 .227.084c.09.002.206-.015.344-.049.138-.034.315-.092.531-.175l3.003-1.088c-.265-.4-.696-.724-1.293-.974Z"/></svg>
